svg/hammer.svg

<svg xmlns="http://www.w3.org/2000/svg" viewBox="0 0 64 64" enable-background="new 0 0 64 64"><style type="text/css">.st0{fill:#343434;}</style><title>hammer</title><desc>Created with Sketch.</desc><path class="st0" d="M62.9 22.3l-6.5-6.5c.9-1.5.7-3.5-.6-4.8l-2.8-2.9c-1.3-1.3-3.3-1.5-4.8-.6l-6.5-6.5c-1.2-1.2-3.1-1.2-4.2 0l-8.5 8.5c-1.2 1.2-1.2 3.1 0 4.2l6.4 6.4-33.3 33.3c-1.6 1.6-1.6 4.1 0 5.7l2.9 2.8c1.6 1.6 4.1 1.6 5.7 0l33.2-33.2 6.4 6.4c1.2 1.2 3.1 1.2 4.2 0l8.5-8.5c1.1-1.3 1.1-3.2-.1-4.3zm-55.1 36.7l-2.8-2.8 14.8-14.8 2.8 2.8-14.8 14.8zm17.7-17.6l-2.8-2.8 15.6-15.6 2.8 2.8-15.6 15.6z"/></svg>

<svg xmlns="http://www.w3.org/2000/svg" viewBox="0 0 64 64"><path d="M62.9 22.3l-6.5-6.5c.9-1.5.7-3.5-.6-4.8L53 8.1c-1.3-1.3-3.3-1.5-4.8-.6L41.7 1c-1.2-1.2-3.1-1.2-4.2 0L29 9.5c-1.2 1.2-1.2 3.1 0 4.2l6.4 6.4L2.1 53.4c-1.6 1.6-1.6 4.1 0 5.7L5 61.9c1.6 1.6 4.1 1.6 5.7 0l33.2-33.2 6.4 6.4c1.2 1.2 3.1 1.2 4.2 0l8.5-8.5c1.1-1.3 1.1-3.2-.1-4.3zM7.8 59L5 56.2l14.8-14.8 2.8 2.8L7.8 59zm17.7-17.6l-2.8-2.8L38.3 23l2.8 2.8-15.6 15.6z" fill="#343434"/></svg>
